src/normal/checkbox_c.svg

<!-- Generated by IcoMoon.io -->
<svg version="1.1" xmlns="http://www.w3.org/2000/svg" width="24" height="24" viewBox="0 0 24 24">
<title>checkbox-checked</title>
<path d="M4 6l9.652 0.014 1.178-2-12.83-0.014v10l2-2v-6zM4 20c-0.039-0.068 0.023-2.403 0.023-3.006-1.059-1.566-2.023-2.994-2.023-2.994v8l5.738 0.014c0 0-0.584-0.865-1.342-1.986-0.782-0.001-1.998-0.028-2.396-0.028zM19 20l-5.941 0.014-1.178 2 9.119-0.014v-14l-2 2v10zM18.014 1.5l-8.25 14.025-2.289-4.004-3.473 1.984 5.711 9.995 11.748-19.973-3.447-2.027z"></path>
</svg>

<svg xmlns="http://www.w3.org/2000/svg" width="24" height="24"><path d="M4 6l9.652.014 1.178-2L2 4v10l2-2V6zm0 14c-.039-.068.023-2.403.023-3.006A5062.721 5062.721 0 012 14v8l5.738.014-1.342-1.986C5.614 20.027 4.398 20 4 20zm15 0l-5.941.014-1.178 2L21 22V8l-2 2v10zm-.986-18.5l-8.25 14.025-2.289-4.004-3.473 1.984L9.713 23.5 21.461 3.527 18.014 1.5z"/></svg>
